Obsidian-SemiLight/actions/16s/view-calendar-timeline.svg

<svg viewBox="0 0 16 16" xmlns="http://www.w3.org/2000/svg"><path d="m2 2v12h12v-12h-2v2h-2v-2h-4v2h-2v-2zm1 3h10v8h-10zm1 1v3h1v-1h4v1h1v-3h-1v1h-4v-1zm3 3v3h1v-1h3v1h1v-3h-1v1h-3v-1z" fill="#4d4d4d"/></svg>

<svg xmlns="http://www.w3.org/2000/svg" viewBox="0 0 16 16">
  <defs id="defs3051">
    <style type="text/css" id="current-color-scheme">
      .ColorScheme-Text {
        color:#4d4d4d;
      }
      </style>
  </defs>
 <path style="fill:currentColor;fill-opacity:1;stroke:none" 
       d="M 2 2 L 2 14 L 14 14 L 14 2 L 12 2 L 12 4 L 10 4 L 10 2 L 6 2 L 6 4 L 4 4 L 4 2 L 2 2 z M 3 5 L 13 5 L 13 13 L 3 13 L 3 5 z M 4 6 L 4 9 L 5 9 L 5 8 L 9 8 L 9 9 L 10 9 L 10 6 L 9 6 L 9 7 L 5 7 L 5 6 L 4 6 z M 7 9 L 7 12 L 8 12 L 8 11 L 11 11 L 11 12 L 12 12 L 12 9 L 11 9 L 11 10 L 8 10 L 8 9 L 7 9 z "
     class="ColorScheme-Text"
     />
</svg>
